public/Mine.svg

<svg width="86" height="30" viewBox="0 0 86 30" fill="none" xmlns="http://www.w3.org/2000/svg">
<path fill-rule="evenodd" clip-rule="evenodd" d="M21.3416 16.8213C21.2621 17.0365 21.2409 17.2689 21.2802 17.4949C21.3196 17.721 21.418 17.9326 21.5656 18.1083C21.7343 18.2372 21.9291 18.3276 22.1364 18.3733C22.3437 18.4189 22.5585 18.4185 22.7656 18.3723C23.5929 18.1917 24.4499 18.1976 25.2746 18.3893C25.4858 18.4809 25.6744 18.6175 25.8272 18.7896C25.98 18.9617 26.0934 19.1651 26.1594 19.3856C26.2254 19.6061 26.2425 19.8384 26.2093 20.0662C26.1762 20.2939 26.0937 20.5117 25.9676 20.7043C25.6389 21.2465 25.2311 21.7365 24.7576 22.1583C23.252 23.9077 21.9304 25.8074 20.8136 27.8273C20.3206 28.6273 19.6676 29.6933 18.6296 29.7993C18.1614 29.8668 17.685 29.7551 17.2956 29.4864C16.9062 29.2178 16.6327 28.812 16.5296 28.3503C16.3886 27.3713 17.3356 26.4373 17.9816 25.7943C18.4356 25.3403 18.8596 24.8723 19.2816 24.3843C19.7746 23.8203 20.2406 23.2583 20.6816 22.6593C21.1966 21.9593 22.0526 20.8133 21.4206 19.9483C20.9626 19.3123 19.9886 19.4233 19.3526 19.6773C18.5423 20.0601 17.8463 20.6482 17.3336 21.3833C16.7752 22.208 16.2657 23.0648 15.8076 23.9493C15.4491 24.6799 14.9322 25.3214 14.2946 25.8273C13.9682 26.0388 13.5741 26.1196 13.1908 26.0534C12.8075 25.9872 12.4632 25.779 12.2266 25.4703C12.0435 25.0886 11.9695 24.6637 12.0129 24.2426C12.0564 23.8214 12.2155 23.4206 12.4726 23.0843C12.8696 22.4967 13.3337 21.9574 13.8556 21.4773C14.6366 20.6773 15.4286 19.8823 16.1876 19.0593C16.5676 18.6373 16.9446 18.2213 17.2876 17.7873C17.5986 17.3873 18.0666 16.8633 17.9286 16.3083C17.6676 15.2633 16.0156 15.6423 15.3406 15.9733C14.3901 16.5185 13.5478 17.2337 12.8556 18.0833C12.1021 18.9538 11.4143 19.879 10.7976 20.8513C9.49163 22.7983 8.28563 24.8253 6.93763 26.7423C6.37563 27.5423 5.70563 28.5093 4.67763 28.7143C4.43015 28.7664 4.17442 28.7655 3.9273 28.7117C3.68018 28.6578 3.44728 28.5522 3.24395 28.4018C3.04062 28.2514 2.87147 28.0596 2.74766 27.839C2.62384 27.6185 2.54817 27.3742 2.52563 27.1223C2.51879 26.2124 2.85309 25.3329 3.46263 24.6573C3.9293 24.0506 4.40596 23.4533 4.89263 22.8653C6.19263 21.2923 7.50263 19.7173 8.83663 18.1823C9.96763 16.8663 11.0546 15.5203 12.1176 14.1373C12.7176 13.3433 13.3306 12.5623 13.8826 11.7373C14.3557 10.9221 14.9645 10.1936 15.6826 9.58327C15.9882 9.32093 16.3684 9.16125 16.7697 9.1268C17.1709 9.09234 17.5728 9.18486 17.9186 9.39127C18.7516 10.0373 18.3406 11.2353 17.9946 12.0193C17.6486 12.8033 17.3166 13.7893 18.3106 14.1663C19.0106 14.4373 19.7896 14.2203 20.4746 14.5663C20.859 14.7835 21.1562 15.1272 21.3157 15.5389C21.4752 15.9505 21.4872 16.4048 21.3496 16.8243" fill="#8989A2"/>
<path fill-rule="evenodd" clip-rule="evenodd" d="M7.47663 16.8853C9.10107 14.5261 10.8617 12.2635 12.7496 10.1093C14.3446 8.29231 16.0276 6.55231 17.6796 4.78031C18.337 4.15921 18.7401 3.31595 18.8106 2.41431C18.8261 2.194 18.7952 1.9729 18.7199 1.76529C18.6446 1.55768 18.5265 1.3682 18.3734 1.20909C18.2202 1.04998 18.0353 0.924802 17.8307 0.84164C17.6261 0.758477 17.4064 0.719187 17.1856 0.72631C16.7203 0.806514 16.2779 0.986949 15.8892 1.25511C15.5005 1.52327 15.1748 1.87274 14.9346 2.27931C14.2966 3.09631 13.7496 3.97831 13.1766 4.83631C12.6296 5.64731 12.0136 6.40431 11.4316 7.19031C10.7906 8.06531 10.1696 8.96031 9.45963 9.77331C8.90763 10.3973 8.19963 11.5163 7.24163 11.4983C7.0709 11.491 6.90631 11.4325 6.7692 11.3305C6.63208 11.2285 6.52876 11.0877 6.47263 10.9263C6.40318 10.7173 6.38934 10.4937 6.43247 10.2777C6.4756 10.0617 6.57422 9.86065 6.71863 9.69431C7.16691 9.06527 7.66591 8.47396 8.21063 7.92631C8.7794 7.45702 9.26167 6.89183 9.63563 6.25631C9.77158 5.93842 9.81665 5.58903 9.7658 5.24705C9.71495 4.90506 9.57019 4.5839 9.34763 4.31931C9.21023 4.15204 9.02826 4.0271 8.82279 3.95896C8.61732 3.89083 8.39675 3.88228 8.18663 3.93431C7.69363 4.07731 7.35363 4.57231 6.95463 4.84631C6.68863 5.02631 6.13363 5.18931 5.96863 4.79231C5.80363 4.39531 6.29663 4.00631 6.51363 3.78431C7.11363 3.16531 8.17663 2.52631 8.23763 1.57831C8.2434 1.35415 8.193 1.1321 8.091 0.932405C7.98901 0.732706 7.83868 0.561699 7.65369 0.434962C7.46871 0.308226 7.25495 0.229787 7.0319 0.206793C6.80884 0.183798 6.58358 0.216978 6.37663 0.30331C5.50682 0.67071 4.77705 1.30624 4.29363 2.11731C3.82763 2.77831 3.01663 3.93631 3.32463 4.78931C3.40032 4.97429 3.526 5.13456 3.6876 5.25218C3.8492 5.3698 4.04033 5.44013 4.23963 5.45531C4.66363 5.52231 5.25063 5.29031 5.62263 5.53931C6.46763 6.10631 5.43263 7.46431 5.05063 8.00431C4.45697 8.82923 3.79677 9.60415 3.07663 10.3213C2.32263 11.0803 1.48463 11.8003 0.806628 12.6213C0.494118 12.9233 0.288846 13.3192 0.222054 13.7487C0.155263 14.1781 0.23061 14.6176 0.436628 15.0003C0.573418 15.1836 0.750806 15.3327 0.954885 15.436C1.15896 15.5393 1.38419 15.5939 1.6129 15.5955C1.84162 15.5972 2.0676 15.5458 2.27315 15.4455C2.47869 15.3452 2.65821 15.1986 2.79763 15.0173C3.34796 14.1881 3.95227 13.3961 4.60663 12.6463C4.75709 12.4886 4.94603 12.3727 5.15485 12.3101C5.36368 12.2475 5.5852 12.2403 5.79763 12.2893C5.90384 12.3291 6.00104 12.3898 6.08354 12.4676C6.16604 12.5455 6.23218 12.639 6.27808 12.7428C6.32399 12.8465 6.34875 12.9584 6.3509 13.0718C6.35305 13.1852 6.33256 13.2979 6.29063 13.4033C5.89331 14.3343 5.27967 15.157 4.50063 15.8033C3.80063 16.5423 3.02163 17.1783 2.33863 17.9113C2.00704 18.229 1.74433 18.6115 1.5668 19.0351C1.38926 19.4586 1.30071 19.9141 1.30663 20.3733C1.32624 20.6071 1.40192 20.8326 1.52726 21.0309C1.6526 21.2292 1.82389 21.3943 2.02663 21.5123C2.43863 21.6677 2.88852 21.6925 3.31508 21.5832C3.74164 21.4738 4.12417 21.2358 4.41063 20.9013C5.33078 19.9452 6.14485 18.8924 6.83863 17.7613L7.47663 16.8853Z" fill="#8989A2"/>
<path fill-rule="evenodd" clip-rule="evenodd" d="M25.0183 4.18336C24.5253 4.69636 23.9783 5.16936 23.4773 5.66236C22.9763 6.15536 22.2453 6.91436 22.4773 7.68336C22.5445 7.84345 22.65 7.9846 22.7844 8.09442C22.9189 8.20425 23.0783 8.27938 23.2486 8.31325C23.4189 8.34711 23.5949 8.33866 23.7612 8.28864C23.9275 8.23862 24.0789 8.14856 24.2023 8.02636C24.7713 7.53336 25.2523 6.75236 26.1173 6.97836C26.4802 7.12378 26.774 7.40211 26.9388 7.75663C27.1036 8.11115 27.127 8.51517 27.0043 8.88636C26.748 9.61866 26.288 10.2626 25.6783 10.7424C25.0824 11.3517 24.5549 12.0243 24.1053 12.7484C23.7503 13.3224 23.3803 13.9194 22.6263 13.9804C22.2833 13.9786 21.9515 13.8581 21.6873 13.6393C21.4231 13.4205 21.2429 13.117 21.1773 12.7804C21.1326 12.3721 21.1837 11.9591 21.3265 11.574C21.4694 11.189 21.7001 10.8426 22.0003 10.5624C22.4003 10.0694 22.8903 9.31736 22.2913 8.76236C21.6403 8.16236 20.7453 8.57236 20.0733 8.86236C19.9117 8.95753 19.7328 9.01972 19.547 9.04534C19.3612 9.07096 19.1722 9.05949 18.9908 9.0116C18.8095 8.96371 18.6395 8.88034 18.4906 8.76633C18.3416 8.65232 18.2168 8.50991 18.1233 8.34736C17.9845 8.01007 17.9405 7.64126 17.9962 7.28081C18.0519 6.92036 18.2051 6.58201 18.4393 6.30236C19.0973 5.35536 19.9753 4.57736 20.6573 3.63536C21.5273 2.47236 22.1143 0.591356 23.8713 0.729355C24.2321 0.769463 24.5758 0.904779 24.8672 1.12144C25.1585 1.3381 25.387 1.62832 25.5293 1.96236C25.6615 2.3426 25.6838 2.75243 25.5936 3.14477C25.5033 3.53711 25.3043 3.89605 25.0193 4.18036" fill="#8989A2"/>
<path fill-rule="evenodd" clip-rule="evenodd" d="M32.3849 24.0092H35.5329V9.83722L41.2249 24.0092H42.3539L47.9419 9.84022V24.0092H51.4319V5.24822H46.8129L41.9869 18.0662L37.0569 5.26022H32.3849V24.0092ZM53.4649 24.0092H56.6399V10.2862H53.4649V24.0092ZM55.0129 8.03122C55.4354 8.01801 55.8404 7.85897 56.1591 7.58111C56.4777 7.30324 56.6904 6.92368 56.761 6.50684C56.8315 6.09 56.7557 5.66157 56.5463 5.29429C56.3369 4.92701 56.0069 4.6435 55.6123 4.4919C55.2176 4.34029 54.7826 4.32992 54.3812 4.46256C53.9798 4.5952 53.6366 4.86267 53.41 5.21956C53.1833 5.57645 53.0872 6.00078 53.1378 6.4205C53.1885 6.84023 53.3828 7.2295 53.6879 7.52222C53.8635 7.69131 54.0713 7.82347 54.2988 7.9109C54.5264 7.99832 54.7692 8.03924 55.0129 8.03122ZM58.6709 24.0092H61.8459V15.9262C61.811 15.4913 61.8701 15.0539 62.0192 14.6438C62.1683 14.2337 62.4039 13.8605 62.71 13.5495C63.0162 13.2386 63.3856 12.9971 63.7933 12.8416C64.201 12.6861 64.6374 12.6201 65.0729 12.6482C66.9609 12.6482 67.8019 13.5922 67.8019 15.6652V24.0092H70.9769V15.3812C70.9769 11.6022 69.0349 10.0022 66.2769 10.0022C65.3797 9.95022 64.4862 10.1543 63.7006 10.5908C62.915 11.0272 62.2697 11.678 61.8399 12.4672V10.2862H58.6699L58.6709 24.0092ZM79.0559 24.2702C82.5709 24.2702 84.9049 22.6952 85.3559 19.8112H82.2919C82.0449 21.1472 81.0599 21.9112 79.1439 21.9112C76.7829 21.9112 75.4709 20.4322 75.3649 17.8442H85.4119V16.9272C85.4119 12.0192 82.3429 10.0002 78.9319 10.0002C75.0249 10.0002 72.1109 12.8322 72.1109 17.0842V17.2942C72.0523 18.2238 72.1918 19.1551 72.5202 20.0267C72.8487 20.8982 73.3585 21.6901 74.0159 22.3498C74.6734 23.0095 75.4635 23.522 76.3339 23.8534C77.2043 24.1849 78.1352 24.3276 79.0649 24.2722L79.0559 24.2702ZM75.4079 15.7172C75.7279 13.5922 77.0149 12.3032 78.9279 12.3032C80.8999 12.3032 82.1029 13.3512 82.2609 15.7122L75.4079 15.7172Z" fill="#8989A2"/>
</svg>

<svg width="86" height="30" fill="none" xmlns="http://www.w3.org/2000/svg"><path fill-rule="evenodd" clip-rule="evenodd" d="M21.342 16.821a1.3 1.3 0 0 0 .224 1.287 1.457 1.457 0 0 0 1.2.264 5.706 5.706 0 0 1 2.509.017 1.58 1.58 0 0 1 .693 2.315 6.369 6.369 0 0 1-1.21 1.454 33.653 33.653 0 0 0-3.944 5.67c-.493.8-1.146 1.865-2.184 1.971a1.877 1.877 0 0 1-2.1-1.449c-.141-.979.806-1.913 1.452-2.556.454-.454.878-.922 1.3-1.41.493-.564.959-1.126 1.4-1.725.515-.7 1.37-1.846.739-2.71-.458-.637-1.432-.526-2.068-.272-.81.383-1.507.971-2.02 1.706a25.464 25.464 0 0 0-1.525 2.566 5.478 5.478 0 0 1-1.513 1.878 1.546 1.546 0 0 1-2.068-.357 2.295 2.295 0 0 1 .246-2.386 9.123 9.123 0 0 1 1.383-1.607c.78-.8 1.573-1.595 2.332-2.418.38-.422.757-.838 1.1-1.272.31-.4.779-.924.64-1.479-.26-1.045-1.912-.666-2.587-.335a8.948 8.948 0 0 0-2.485 2.11 23.288 23.288 0 0 0-2.058 2.768c-1.306 1.947-2.512 3.974-3.86 5.891-.562.8-1.232 1.767-2.26 1.972a1.792 1.792 0 0 1-2.152-1.592c-.007-.91.327-1.79.937-2.465.466-.606.943-1.204 1.43-1.792 1.3-1.573 2.61-3.148 3.944-4.683a95.182 95.182 0 0 0 3.28-4.045c.6-.794 1.214-1.575 1.766-2.4a8.284 8.284 0 0 1 1.8-2.154 1.921 1.921 0 0 1 2.236-.192c.833.646.422 1.844.076 2.628s-.678 1.77.316 2.147c.7.271 1.479.054 2.164.4a1.91 1.91 0 0 1 .875 2.258M7.477 16.885a73.673 73.673 0 0 1 5.273-6.776c1.595-1.817 3.278-3.557 4.93-5.329a3.646 3.646 0 0 0 1.13-2.366A1.579 1.579 0 0 0 17.187.726a3.257 3.257 0 0 0-2.251 1.553c-.638.817-1.185 1.7-1.758 2.557-.547.811-1.163 1.568-1.745 2.354-.641.875-1.262 1.77-1.972 2.583-.552.624-1.26 1.743-2.218 1.725a.853.853 0 0 1-.77-.572 1.27 1.27 0 0 1 .247-1.232A14.16 14.16 0 0 1 8.21 7.926a6.321 6.321 0 0 0 1.425-1.67 1.868 1.868 0 0 0-.288-1.937 1.146 1.146 0 0 0-1.161-.385c-.493.143-.833.638-1.232.912-.266.18-.821.343-.986-.054-.165-.397.328-.786.545-1.008.6-.619 1.663-1.258 1.724-2.206A1.344 1.344 0 0 0 6.377.303a4.433 4.433 0 0 0-2.083 1.814c-.466.661-1.277 1.82-.97 2.672a1.077 1.077 0 0 0 .916.666c.424.067 1.01-.165 1.383.084.845.567-.19 1.925-.572 2.465-.594.825-1.254 1.6-1.974 2.317-.754.76-1.592 1.48-2.27 2.3a1.994 1.994 0 0 0-.37 2.38 1.481 1.481 0 0 0 2.36.016c.551-.829 1.155-1.62 1.81-2.37a1.256 1.256 0 0 1 1.19-.358.853.853 0 0 1 .494 1.114 6.364 6.364 0 0 1-1.79 2.4c-.7.74-1.48 1.375-2.162 2.108a3.35 3.35 0 0 0-1.032 2.462 1.459 1.459 0 0 0 .72 1.14A2.143 2.143 0 0 0 4.41 20.9a18.408 18.408 0 0 0 2.428-3.14l.638-.876z" fill="#8989A2"/><path fill-rule="evenodd" clip-rule="evenodd" d="M25.018 4.183c-.493.513-1.04.986-1.54 1.48-.502.492-1.233 1.251-1 2.02a1.061 1.061 0 0 0 1.724.343c.57-.493 1.05-1.274 1.915-1.048a1.536 1.536 0 0 1 .887 1.908 4.075 4.075 0 0 1-1.326 1.856 11.683 11.683 0 0 0-1.573 2.006c-.355.574-.725 1.171-1.479 1.232a1.484 1.484 0 0 1-1.449-1.2A2.642 2.642 0 0 1 22 10.562c.4-.493.89-1.245.291-1.8-.65-.6-1.546-.19-2.218.1a1.42 1.42 0 0 1-1.95-.515 2 2 0 0 1 .316-2.045c.658-.947 1.536-1.725 2.218-2.667.87-1.163 1.457-3.044 3.214-2.906a2.048 2.048 0 0 1 1.658 1.233 2.14 2.14 0 0 1-.51 2.218M32.385 24.01h3.148V9.836l5.692 14.172h1.129L47.942 9.84v14.17h3.49V5.247h-4.62l-4.825 12.818-4.93-12.806h-4.672v18.75zm21.08 0h3.175V10.285h-3.175V24.01zM55.013 8.03a1.831 1.831 0 1 0-.115-3.66 1.831 1.831 0 0 0 .115 3.66zM58.67 24.01h3.175v-8.083a3.041 3.041 0 0 1 3.227-3.278c1.888 0 2.729.944 2.729 3.017v8.344h3.175v-8.628c0-3.779-1.942-5.379-4.7-5.379a4.74 4.74 0 0 0-4.437 2.465v-2.18h-3.17v13.722zm20.385.261c3.515 0 5.849-1.575 6.3-4.459h-3.064c-.247 1.336-1.232 2.1-3.148 2.1-2.361 0-3.673-1.479-3.78-4.067h10.048v-.917c0-4.908-3.07-6.927-6.48-6.927-3.907 0-6.821 2.832-6.821 7.084v.21a6.576 6.576 0 0 0 6.954 6.978l-.01-.002zm-3.648-8.553c.32-2.125 1.607-3.414 3.52-3.414 1.972 0 3.175 1.048 3.333 3.41l-6.853.004z" fill="#8989A2"/></svg>
